X:1
T:Amhran Dochais & C\'ait Ni Dhuibhir
T:Hope
C:Traditional
N:First part by Osborn OhAimhirgin (early 20th century)
N:Second part is a traditional munster song. (18th Century)
N:Transcribe by R. S. Doiel.  Originally Heard on a Chieftain's CD
N:I think ether Chieftains' 7 or 8
R:Slow Air
M:4/4
L:1/8
Q:1/4=60
K:G
{GA}BA | "G" G3 E "D" DE FD | "G" G2 GF "G" GA BG | "C" c2 BA GE D/E/F | "Em" E3 B BA "G" G2- |
"D" GE DE FD "G" G2 | "G" GF GA Bc d2 | "Em" {d}e2 B2 A2 "G" G2- | "G" GF G2 Bd "Em" e2 |
"C" c2 A2 Bc d2 | "Em" {d}e2 B2 A2 "G" G2  | "C" c2 BA GE D/E/F | "Em" E3 B BA G2- |
"G" GE DE FD G2- | "G" GF GA Bc d2 | "Em" {d}e2 B2 A2 "G" G2- | "G" GF "G" G2- G4 || 
% Segue to the second tune in Dochas
"G" G4 F2 D2 | "G" G2 GF GA BG | "C" c2 B2 c2  d2 | "D" ed d^c d2 B=c |
"G" dg gf g2 fe | "D" de dc "Bm" B2  AG | "Am" AB cA "D" d2 BA | "G" G2 A2 B2 Bc |
"G" dg gf g2 fe | "D" de dc "Bm" B2  AG | "Am" AB cA d2 BA | "G" G2 F2 G4 ||



